X: 16
T: Kylebrack Rambler, The
C: Finbarr Dwyer
Z: ceili
S: https://thesession.org/tunes/361#setting50009
R: reel
M: 4/4
L: 1/8
K: Dmix
|:"Dm"DA, A,/A,/A, DA,=FA,|"Dm"DA, A,/A,/A, "C"CA,G,A,|"Dm"DA, A,/A,/A, DA,DE|"D"FGAF "G"G/G/G FG|
"D"Adde dcAc|"C"cGAc GEDE|"D"DCA,G, A,DDE|1 "G"FAGE "Dm"D2FE:|2 "G"FA"C"GE "D"D2FG||
|:"D"A3G FD D/D/D|d3c AGAB|"C"c/c/c Gc EcGc|"G"cded cAGA|
"D"d2 fd dA A/A/A|"A"cA A/A/A EAAF|"C"G/G/G EG CDEc| "G"cAGE "Dm"DEFG:|
|:"D"AD D/D/D A,D D/D/D|dA A/A/A dcAB|"C"c3B cAGB|"G"cBcd cAGE|
"D"FD D/D/D A,D D/D/D|dA A/A/A dcAB| "C"c3B cAGd cAGE|1CDEC "D"DEFG:|2CDEC "D"D4||

